src/mic.svg

<?xml version="1.0" encoding="UTF-8" standalone="no"?>
<svg width="20px" height="20px" viewBox="0 0 20 20" version="1.1" xmlns="http://www.w3.org/2000/svg" xmlns:xlink="http://www.w3.org/1999/xlink">
    <!-- Generator: Sketch 3.7.2 (28276) - http://www.bohemiancoding.com/sketch -->
    <title>mic</title>
    <desc>Created with Sketch.</desc>
    <defs></defs>
    <g id="Page-1" stroke="none" stroke-width="1" fill="none" fill-rule="evenodd">
        <g id="mic" fill="#000000">
            <path d="M9,18 L9,16.9379599 C5.05368842,16.4447356 2,13.0713165 2,9 L4,9 L4,9.00181488 C4,12.3172241 6.6862915,15 10,15 C13.3069658,15 16,12.314521 16,9.00181488 L16,9 L18,9 C18,13.0790094 14.9395595,16.4450043 11,16.9378859 L11,18 L14,18 L14,20 L6,20 L6,18 L9,18 L9,18 Z M6,4.00650452 C6,1.79377317 7.79535615,0 10,0 C12.209139,0 14,1.79394555 14,4.00650452 L14,8.99349548 C14,11.2062268 12.2046438,13 10,13 C7.790861,13 6,11.2060545 6,8.99349548 L6,4.00650452 L6,4.00650452 Z" id="Combined-Shape"></path>
        </g>
    </g>
</svg>

<svg xmlns="http://www.w3.org/2000/svg" viewBox="0 0 20 20"><path d="M9 18v-1.06A8 8 0 0 1 2 9h2a6 6 0 1 0 12 0h2a8 8 0 0 1-7 7.94V18h3v2H6v-2h3zM6 4a4 4 0 1 1 8 0v5a4 4 0 1 1-8 0V4z"/></svg>
